build/web/dist/spark/icons/AlarmOffOutline.svg

<svg viewBox="0 0 24 24" xmlns="http://www.w3.org/2000/svg" data-title="AlarmOffOutline" fill="currentColor" stroke="none">
  <path d="M15.0185 4.41625C14.7021 4.26233 14.3745 4.13202 14.0383 4.02645C13.9968 2.90063 13.0566 2.00049 11.9029 2.00049C10.7493 2.00049 9.80919 2.90052 9.76761 4.02626C8.70027 4.36128 7.719 4.94577 6.91308 5.74279C5.59072 7.05055 4.84866 8.82327 4.84866 10.6707C4.84866 12.4809 4.64856 13.7684 4.37308 14.6951C4.21397 15.2303 4.5257 15.7911 5.06934 15.9478C5.61298 16.1044 6.18267 15.7975 6.34178 15.2623C6.68498 14.1079 6.89994 12.6215 6.89994 10.6707C6.89994 9.35591 7.42813 8.09585 8.36684 7.16752C9.30539 6.23934 10.5773 5.71872 11.9026 5.71872C12.675 5.71872 13.429 5.89549 14.1096 6.22665C14.6174 6.47373 15.2325 6.26876 15.4835 5.76883C15.7345 5.2689 15.5263 4.66333 15.0185 4.41625Z"/>
  <path fill-rule="evenodd" clip-rule="evenodd" d="M18.1 7.34102L21.6996 3.79732C22.1001 3.403 22.1001 2.76368 21.6996 2.36936C21.2991 1.97504 20.6497 1.97504 20.2491 2.36936L2.3004 20.0395C1.89987 20.4338 1.89987 21.0731 2.3004 21.4675C2.70094 21.8618 3.35034 21.8618 3.75088 21.4675L5.63198 19.6156H8.77371L8.77495 19.6203C8.9552 20.3019 9.36006 20.9053 9.92607 21.3361C10.4921 21.7668 11.1873 22.0005 11.9027 22.0005C12.6181 22.0005 13.3133 21.7668 13.8793 21.3361C14.4453 20.9053 14.8502 20.3019 15.0304 19.6203L15.0317 19.6156H18.011C18.9723 19.6156 19.831 19.1902 20.1968 18.3107C20.5257 17.5199 20.3327 16.6389 19.9348 15.9191C19.4381 15.0207 18.9566 13.4737 18.9566 10.6707C18.9566 9.49726 18.6572 8.35406 18.1 7.34102ZM16.5584 8.85874L7.68326 17.5961H18.011C18.1983 17.5961 18.2774 17.5579 18.2943 17.5482L18.2985 17.5459C18.3104 17.5175 18.3606 17.2961 18.1331 16.8845C17.422 15.5982 16.9053 13.6883 16.9053 10.6707C16.9053 10.0444 16.7855 9.43039 16.5584 8.85874Z"/>
</svg>

<svg viewBox="0 0 24 24" xmlns="http://www.w3.org/2000/svg" data-title="AlarmOffOutline" fill="currentColor" stroke="none">
  <path d="M15.02 4.42c-.32-.15-.64-.28-.98-.39-.04-1.13-.98-2.03-2.14-2.03s-2.09.9-2.14 2.03c-1.07.34-2.05.92-2.85 1.72-1.32 1.31-2.06 3.08-2.06 4.93s-.2 3.1-.48 4.02c-.16.54.15 1.1.7 1.25.54.16 1.11-.15 1.27-.69.34-1.15.56-2.64.56-4.59 0-1.31.53-2.57 1.47-3.5.94-.93 2.21-1.45 3.54-1.45.77 0 1.53.18 2.21.51.51.25 1.12.04 1.37-.46.25-.5.04-1.11-.46-1.35ZM18.1 7.34l3.6-3.54c.4-.39.4-1.03 0-1.43s-1.05-.39-1.45 0L2.3 20.04c-.4.39-.4 1.03 0 1.43.4.39 1.05.39 1.45 0l1.88-1.85h3.14c.18.69.59 1.29 1.15 1.72.57.43 1.26.66 1.98.66s1.41-.23 1.98-.66c.57-.43.97-1.03 1.15-1.72h0s2.98 0 2.98 0c.96 0 1.82-.43 2.19-1.3.33-.79.14-1.67-.26-2.39-.5-.9-.98-2.45-.98-5.25 0-1.17-.3-2.32-.86-3.33Zm-1.54 1.52-8.88 8.74h10.33c.19 0 .27-.04.28-.05h0s.06-.25-.17-.66c-.71-1.29-1.23-3.2-1.23-6.21 0-.63-.12-1.24-.35-1.81Z"/>
</svg>
